icons/castle-15.svg

<?xml version="1.0" encoding="utf-8"?>
<!-- Generator: Adobe Illustrator 19.2.1, SVG Export Plug-In . SVG Version: 6.00 Build 0)  -->
<!DOCTYPE svg PUBLIC "-//W3C//DTD SVG 1.1//EN" "http://www.w3.org/Graphics/SVG/1.1/DTD/svg11.dtd">
<svg version="1.1" id="Layer_1" xmlns="http://www.w3.org/2000/svg" xmlns:xlink="http://www.w3.org/1999/xlink" x="0px" y="0px"
	 width="15px" height="15px" viewBox="0 0 15 15" style="enable-background:new 0 0 15 15;" xml:space="preserve">
<path d="M11,4H4C3.4477,4,3,3.5523,3,3V0.5C3,0.2239,3.2239,0,3.5,0S4,0.2239,4,0.5V2h1V1c0-0.5523,0.4477-1,1-1s1,0.4477,1,1v1h1V1
	c0-0.5523,0.4477-1,1-1s1,0.4477,1,1v1h1V0.5C11,0.2239,11.2239,0,11.5,0S12,0.2239,12,0.5V3C12,3.5523,11.5523,4,11,4z M14,14.5
	c0,0.2761-0.2239,0.5-0.5,0.5h-12C1.2239,15,1,14.7761,1,14.5S1.2239,14,1.5,14H2c0.5523,0,1-0.4477,1-1c0,0,1-6,1-7
	c0-0.5523,0.4477-1,1-1h5c0.5523,0,1,0.4477,1,1c0,1,1,7,1,7c0,0.5523,0.4477,1,1,1h0.5c0.2723-0.0001,0.4946,0.2178,0.5,0.49V14.5z
	 M9,10.5C9,9.6716,8.3284,9,7.5,9S6,9.6716,6,10.5V14h3V10.5z"/>
</svg>

<svg id="Layer_1" data-name="Layer 1" xmlns="http://www.w3.org/2000/svg" width="15" height="15" viewBox="0 0 15 15">
  <title>castle-15</title>
  <path d="M11,4H4A1,1,0,0,1,3,3V0.5a0.49,0.49,0,0,1,1,0V2H5V1A1,1,0,0,1,7,1V2H8V1a1,1,0,0,1,2,0V2h1V0.5a0.49,0.49,0,0,1,1,0V3A1,1,0,0,1,11,4Zm3,10.5a0.5,0.5,0,0,1-.5.5H1.5a0.5,0.5,0,0,1,0-1H2a1,1,0,0,0,1-1S4,7,4,6A1,1,0,0,1,5,5h5a1,1,0,0,1,1,1c0,1,1,7,1,7a1,1,0,0,0,1,1h0.5A0.5,0.5,0,0,1,14,14.49Zm-5-4a1.5,1.5,0,0,0-3,0V14H9V10.5Z"/>
</svg>
